icons/svg/seamark/platform_production_additional.svg

<?xml version="1.0" encoding="UTF-8" standalone="no"?>
<svg
   xmlns:dc="http://purl.org/dc/elements/1.1/"
   xmlns:cc="http://creativecommons.org/ns#"
   xmlns:rdf="http://www.w3.org/1999/02/22-rdf-syntax-ns#"
   xmlns:svg="http://www.w3.org/2000/svg"
   xmlns="http://www.w3.org/2000/svg"
   xmlns:sodipodi="http://sodipodi.sourceforge.net/DTD/sodipodi-0.dtd"
   xmlns:inkscape="http://www.inkscape.org/namespaces/inkscape"
   width="1060"
   height="1060"
   id="svg2"
   version="1.1"
   inkscape:version="0.48.4 r9939"
   sodipodi:docname="platform_fpso_additional.svg">
  <defs
     id="defs13">
    <inkscape:path-effect
       effect="gears"
       id="path-effect3774"
       is_visible="true"
       teeth="6"
       phi="-1.2" />
    <inkscape:path-effect
       effect="bend_path"
       id="path-effect3772"
       is_visible="false"
       bendpath="m 95.790098,316.51174 c 144.429032,-206.42506 223.313032,-11.7428 339.548092,0"
       prop_scale="1.19"
       scale_y_rel="false"
       vertical="false"
       bendpath-nodetypes="cc" />
  </defs>
  <sodipodi:namedview
     pagecolor="#ffffff"
     bordercolor="#666666"
     borderopacity="1"
     objecttolerance="10"
     gridtolerance="10"
     guidetolerance="10"
     inkscape:pageopacity="0"
     inkscape:pageshadow="2"
     inkscape:window-width="1920"
     inkscape:window-height="1004"
     id="namedview11"
     showgrid="false"
     inkscape:zoom="0.5"
     inkscape:cx="672.29937"
     inkscape:cy="467.00153"
     inkscape:window-x="1680"
     inkscape:window-y="0"
     inkscape:window-maximized="1"
     inkscape:current-layer="svg2"
     inkscape:snap-object-midpoints="true"
     inkscape:snap-center="true" />
  <metadata
     id="metadata2975">image/svg+xmlen<rdf:RDF>
  <cc:Work
     rdf:about="">
    <dc:format>image/svg+xml</dc:format>
    <dc:type
       rdf:resource="http://purl.org/dc/dcmitype/StillImage" />
    <dc:title></dc:title>
  </cc:Work>
</rdf:RDF>
</metadata>
  <path
     style="font-size:medium;font-style:normal;font-variant:normal;font-weight:normal;font-stretch:normal;text-indent:0;text-align:start;text-decoration:none;line-height:normal;letter-spacing:normal;word-spacing:normal;text-transform:none;direction:ltr;block-progression:tb;writing-mode:lr-tb;text-anchor:start;baseline-shift:baseline;opacity:0.42608696;color:#000000;fill:#acd8f3;fill-opacity:1;fill-rule:nonzero;stroke:#a35151;stroke-width:0;stroke-linecap:round;stroke-linejoin:miter;stroke-miterlimit:4;stroke-opacity:1;stroke-dashoffset:0;marker:none;visibility:visible;display:inline;overflow:visible;enable-background:accumulate;font-family:Sans;-inkscape-font-specification:Sans"
     d="m 436.87203,72.059301 c -11.5939,0.0042 -23.1149,4.777994 -31.313,12.976047 -8.1981,8.198073 -12.9724,19.719092 -12.976,31.312902 l 0,54.58146 c 0.022,12.70622 5.8229,25.2904 15.4699,33.5598 l 0,15.03329 -13.9106,54.89335 c -4.987,-25.90004 -14.8531,-50.98933 -29.6923,-74.72981 -22.1978,-35.51344 -53.9561,-69.07985 -97.0613,-109.100531 -11.4254,-10.601223 -28.6846,-14.465916 -43.5399,-9.749515 -14.8555,4.71639 -26.7244,17.828894 -29.9423,33.079186 -7.4143,35.29768 -23.0431,61.09169 -40.4215,90.32452 -17.3785,29.23282 -38.1759,63.94684 -38.1759,109.84907 0,61.46643 45.4837,107.44887 95.0653,124.63286 14.5863,5.03244 31.7405,1.72976 43.4157,-8.35876 9.6745,9.19169 23.6588,13.64016 36.8659,11.72722 27.5421,-4.02562 51.6841,-17.69586 70.3008,-37.05301 l -23.2672,96.62477 c 220.1394,-0.56455 167.4603,0.58614 382.0079,-0.12476 l -28.9438,-109.97384 c 23.95,28.07689 59.4492,46.03557 98.8703,46.03557 71.3712,0 130.1222,-58.75105 130.1222,-130.1222 0,-50.72087 -26.4298,-91.90935 -49.2168,-129.93506 -22.7869,-38.0257 -45.4117,-68.24241 -45.4117,-68.24241 -8.267,-11.062352 -21.9502,-17.866364 -35.7598,-17.78179 -13.8097,0.08462 -27.4085,7.055689 -35.5393,18.21844 0,0 -22.5436,30.90374 -45.2246,69.1781 -18.3623,30.9864 -38.899,63.09892 -46.1602,100.92891 l -15.3452,-60.32031 0,-14.97091 c 9.6625,-8.28295 15.4657,-20.89517 15.4699,-33.62218 l 0,-54.58146 c 0,-11.59381 -4.7781,-23.114829 -12.9762,-31.312902 -8.1981,-8.198053 -19.7191,-12.972351 -31.3127,-12.976047 z M 264.08273,356.31952 c -2.052,2.65834 -3.9136,4.66919 -4.928,5.36458 -1.343,0.92585 -2.6347,1.92595 -3.8675,2.99418 -1.0149,-0.98576 -2.0768,-1.92288 -3.1812,-2.80704 -0.2568,-0.19921 -0.8937,-1.37411 -1.2476,-1.87136 4.563,-0.53121 9.0426,-1.77781 13.2243,-3.68036 z"
     id="path4496"
     inkscape:connector-curvature="0"
     sodipodi:nodetypes="cscccccscscsscccccccssscscscccccscccccccc" />
  <path
     inkscape:connector-curvature="0"
     style="fill:none;stroke:#001836;stroke-width:37.3274765;stroke-linecap:round;stroke-linejoin:miter;stroke-miterlimit:4;stroke-opacity:1;stroke-dasharray:none"
     d="M 621.78713,383.79888 404.35463,560.45395"
     id="path9895-2"
     sodipodi:nodetypes="cc" />
  <path
     inkscape:connector-curvature="0"
     style="fill:none;stroke:#001836;stroke-width:59.88364792;stroke-linecap:round;stroke-linejoin:round;stroke-miterlimit:4;stroke-opacity:1;stroke-dasharray:none"
     sodipodi:nodetypes="cz"
     id="path9928-8"
     d="m 570.91333,222.24758 93.6861,369.0745" />
  <path
     inkscape:connector-curvature="0"
     d="m 484.01853,222.24758 -93.6859,369.0745"
     id="path5516-4"
     sodipodi:nodetypes="cz"
     style="fill:none;stroke:#001836;stroke-width:59.88364792;stroke-linecap:round;stroke-linejoin:round;stroke-miterlimit:4;stroke-opacity:1;stroke-dasharray:none" />
  <path
     inkscape:connector-curvature="0"
     id="path5518-0"
     d="m 442.35113,389.44477 207.3811,171.00918"
     style="fill:none;stroke:#001836;stroke-width:37.3274765;stroke-linecap:round;stroke-linejoin:miter;stroke-miterlimit:4;stroke-opacity:1;stroke-dasharray:none"
     sodipodi:nodetypes="cc" />
  <path
     inkscape:connector-curvature="0"
     id="path5520-5"
     d="M 581.89253,280.19551 445.81273,397.6956"
     style="fill:none;stroke:#001836;stroke-width:37.3274765;stroke-linecap:round;stroke-linejoin:miter;stroke-miterlimit:4;stroke-opacity:1;stroke-dasharray:none"
     sodipodi:nodetypes="cc" />
  <path
     inkscape:connector-curvature="0"
     style="fill:none;stroke:#001836;stroke-width:37.3274765;stroke-linecap:round;stroke-linejoin:miter;stroke-miterlimit:4;stroke-opacity:1;stroke-dasharray:none"
     d="m 472.15443,276.20326 135.7018,117.5001"
     id="path5522-5"
     sodipodi:nodetypes="cc" />
  <rect
     style="color:#000000;fill:#001836;fill-opacity:1;stroke:none;stroke-width:24;marker:none;visibility:visible;display:inline;overflow:visible;enable-background:accumulate"
     id="rect4100-5-6-2"
     width="150.39857"
     height="41.157623"
     x="452.26852"
     y="192.52448" />
  <rect
     style="color:#000000;fill:#001836;fill-opacity:1;stroke:none;stroke-width:24;marker:none;visibility:visible;display:inline;overflow:visible;enable-background:accumulate"
     id="rect4100-5-6-7-4"
     width="181.45096"
     height="54.566601"
     x="436.74216"
     y="117.0108" />
  <path
     inkscape:connector-curvature="0"
     d="m 789.49923,136.43423 c 0,0 -85.8332,118.0207 -85.8332,171.66648 0,47.20828 38.625,85.83324 85.8332,85.83324 47.2083,0 85.8333,-38.62496 85.8333,-85.83324 0,-56.86452 -85.8333,-171.66648 -85.8333,-171.66648 z m -32.1874,173.81231 c 0,37.55204 16.0937,51.49994 16.0937,51.49994 0,0 -37.5521,-9.65624 -37.5521,-61.15618 0,-35.40621 42.9168,-110.5103 42.9168,-110.5103 0,0 -21.4584,65.44785 -21.4584,120.16654 z"
     id="path3-9"
     style="color:#000000;fill:#001836;fill-opacity:1;fill-rule:nonzero;stroke:none;stroke-width:24;marker:none;visibility:visible;display:inline;overflow:visible;enable-background:accumulate" />
  <path
     style="color:#000000;fill:#001836;fill-opacity:1;fill-rule:nonzero;stroke:none;stroke-width:24;marker:none;visibility:visible;display:inline;overflow:visible;enable-background:accumulate"
     inkscape:connector-curvature="0"
     d="m 237.14063,123.69424 c -18.2491,86.88027 -77.621,126.39677 -77.621,191.07192 0,42.44845 27.3037,69.60124 65.2788,82.76262 -11.1996,-8.69881 -26.269,-27.28213 -26.269,-44.81988 0,-33.16756 16.8802,-43.09519 25.6653,-79.11924 21.0841,18.31383 21.5584,43.11677 21.5584,43.11677 0,0 29.4596,-43.41861 21.5585,-97.01272 86.2334,75.45432 51.0717,155.72697 16.8263,179.20404 38.2014,-5.58361 69.4071,-40.79923 69.4071,-84.79989 0,-64.67515 -32.6501,-112.64255 -116.4044,-190.40362 z"
     id="path3-5-9" />
</svg>

<svg width="1060" height="1060" viewBox="0 0 1060 1060" fill="none" xmlns="http://www.w3.org/2000/svg">
<path opacity="0.426087" d="M436.872 72.0586C425.278 72.0628 413.757 76.8366 405.559 85.0346C397.361 93.2327 392.587 104.754 392.583 116.348V170.929C392.605 183.635 398.406 196.219 408.053 204.489V219.522L394.142 274.415C389.155 248.515 379.289 223.426 364.45 199.686C342.252 164.172 310.494 130.606 267.389 90.5851C255.963 79.9839 238.704 76.1192 223.849 80.8356C208.993 85.552 197.124 98.6645 193.906 113.915C186.492 149.212 170.863 175.006 153.485 204.239C136.106 233.472 115.309 268.186 115.309 314.088C115.309 375.555 160.793 421.537 210.374 438.721C224.961 443.754 242.115 440.451 253.79 430.362C263.465 439.554 277.449 444.003 290.656 442.09C318.198 438.064 342.34 424.394 360.957 405.037L337.69 501.661C557.829 501.097 505.15 502.248 719.697 501.537L690.754 391.563C714.704 419.64 750.203 437.598 789.624 437.598C860.995 437.598 919.746 378.847 919.746 307.476C919.746 256.755 893.316 215.567 870.529 177.541C847.742 139.515 825.118 109.299 825.118 109.299C816.851 98.2364 803.167 91.4324 789.358 91.517C775.548 91.6016 761.949 98.5726 753.819 109.735C753.819 109.735 731.275 140.639 708.594 178.913C690.232 209.9 669.695 242.012 662.434 279.842L647.089 219.522V204.551C656.751 196.268 662.554 183.656 662.558 170.929V116.348C662.558 104.754 657.78 93.2327 649.582 85.0346C641.384 76.8366 629.863 72.0623 618.27 72.0586H436.872ZM264.083 356.319C262.031 358.977 260.169 360.988 259.155 361.683C257.812 362.609 256.52 363.609 255.287 364.678C254.272 363.692 253.21 362.755 252.106 361.871C251.849 361.671 251.212 360.496 250.858 359.999C255.421 359.468 259.901 358.221 264.083 356.319Z" fill="#ACD8F3"/>
<path d="M621.787 383.799L404.355 560.454" stroke="#001836" stroke-width="37.3275" stroke-linecap="round"/>
<path d="M570.913 222.248L664.599 591.323" stroke="#001836" stroke-width="59.8836" stroke-linecap="round" stroke-linejoin="round"/>
<path d="M484.019 222.248L390.333 591.323" stroke="#001836" stroke-width="59.8836" stroke-linecap="round" stroke-linejoin="round"/>
<path d="M442.351 389.445L649.732 560.455" stroke="#001836" stroke-width="37.3275" stroke-linecap="round"/>
<path d="M581.893 280.195L445.813 397.695" stroke="#001836" stroke-width="37.3275" stroke-linecap="round"/>
<path d="M472.154 276.203L607.856 393.703" stroke="#001836" stroke-width="37.3275" stroke-linecap="round"/>
<path d="M602.667 192.525H452.269V233.683H602.667V192.525Z" fill="#001836"/>
<path d="M618.193 117.012H436.742V171.578H618.193V117.012Z" fill="#001836"/>
<path d="M789.499 136.434C789.499 136.434 703.666 254.454 703.666 308.1C703.666 355.308 742.291 393.933 789.499 393.933C836.708 393.933 875.333 355.308 875.333 308.1C875.333 251.236 789.499 136.434 789.499 136.434V136.434ZM757.312 310.246C757.312 347.798 773.406 361.746 773.406 361.746C773.406 361.746 735.853 352.09 735.853 300.59C735.853 265.183 778.77 190.079 778.77 190.079C778.77 190.079 757.312 255.527 757.312 310.246Z" fill="#001836"/>
<path d="M237.141 123.693C218.892 210.574 159.52 250.09 159.52 314.765C159.52 357.214 186.823 384.367 224.798 397.528C213.599 388.829 198.529 370.246 198.529 352.708C198.529 319.54 215.41 309.613 224.195 273.589C245.279 291.903 245.753 316.706 245.753 316.706C245.753 316.706 275.213 273.287 267.312 219.693C353.545 295.147 318.383 375.42 284.138 398.897C322.339 393.313 353.545 358.098 353.545 314.097C353.545 249.422 320.895 201.454 237.141 123.693V123.693Z" fill="#001836"/>
</svg>
